svgs/sharp-regular/bridge-suspension.svg

<svg xmlns="http://www.w3.org/2000/svg" viewBox="0 0 640 512"><!--! Font Awesome Pro 6.6.0 by @fontawesome - https://fontawesome.com License - https://fontawesome.com/license (Commercial License) Copyright 2024 Fonticons, Inc. --><path d="M120 8L105.2 8 98.5 21.3c-21.1 42.2-56.8 71.4-96 97.9l26.9 39.8c25.1-17 51.6-36.8 74.6-62L104 240l-80 0L0 240l0 48 24 0 592 0 24 0 0-48-24 0-80 0 0-143.1c22.9 25.3 49.4 45 74.6 62l26.9-39.8c-39.2-26.5-74.9-55.7-96-97.9L534.8 8 520 8 504 8 490.1 8l-6.9 12.1C447.6 82.4 389.4 120 320 120s-127.6-37.6-163.2-99.9L149.9 8 136 8 120 8zM488 94.2L488 240l-48 0 0-106.1c17.5-11 33.6-24.3 48-39.8zm-96 62.4l0 83.5-48 0 0-73.2c16.7-1.7 32.7-5.2 48-10.2zm-96 10.2l0 73.2-48 0 0-83.5c15.3 5.1 31.3 8.5 48 10.3zm-96-32.9L200 240l-48 0 0-145.8c14.4 15.4 30.5 28.8 48 39.8zM0 336l0 48 24 0 72 0 0 104 0 24 24 0 96 0 24 0 0-24 0-104 160 0 0 104 0 24 24 0 96 0 24 0 0-24 0-104 72 0 24 0 0-48-24 0-96 0-24 0 0 24 0 104-48 0 0-104 0-24-24 0-208 0-24 0 0 24 0 104-48 0 0-104 0-24-24 0-96 0L0 336z"/></svg>

<svg xmlns="http://www.w3.org/2000/svg" viewBox="0 0 640 512"><!--! Font Awesome Pro 6.4.0 by @fontawesome - https://fontawesome.com License - https://fontawesome.com/license (Commercial License) Copyright 2023 Fonticons, Inc. --><path d="M120 8H105.2L98.5 21.3c-21.1 42.2-56.8 71.4-96 97.9l26.9 39.8c25.1-17 51.6-36.8 74.6-62V240H24 0v48H24 616h24V240H616 536V96.9c22.9 25.3 49.4 45 74.6 62l26.9-39.8c-39.2-26.5-74.9-55.7-96-97.9L534.8 8H520 504 490.1l-6.9 12.1C447.6 82.4 389.4 120 320 120s-127.6-37.6-163.2-99.9L149.9 8H136 120zM488 94.2V240H440V133.9c17.5-11 33.6-24.3 48-39.8zm-96 62.4V240H344V166.8c16.7-1.7 32.7-5.2 48-10.2zm-96 10.2V240H248V156.5c15.3 5.1 31.3 8.5 48 10.3zm-96-32.9V240H152V94.2c14.4 15.4 30.5 28.8 48 39.8zM0 336v48H24 96V488v24h24 96 24V488 384H400V488v24h24 96 24V488 384h72 24V336H616 520 496v24V464H448V360 336H424 216 192v24V464H144V360 336H120 24 0z"/></svg>
